X:20
T:Big John Mac Neil
R:reel
D:"Chasing the bear" by Jon Hicks
Z:Transcribed by Lionel Gueganton
L:1/8
M:4/4
K:A
|: A,2 CE FE CE       | AE CE FE CB,   | A,2 CE FE CE        | DE FE CD B,C
|  A,2 CE FE CE       | AE CE FE CB,   | B,/C/D F2 B,/C/C EC |1 B,A, G,A, B,C D/C/B,
                                                            :|2 B,A, G,A, B,C DA
|: [e2e2] A/A/A eA fA | e2 A/A/A ef ga | e2 A/A/A ag fe      | dB =GB cd ef 
|  [e2e2] A/A/A eA fA | e2 A/A/A ef ge | ag fe fe dc         |1 BA GA Bc df 
                                                            :|2 BA GF ED CB, 
                                                             |"to Malibu Abu" BA GF EF GA 

